X:2368
T:Green Hills Of Tyrol. JMT055
O:england
M:3/4
L:1/8
S:J.Moore,Tyneside,1841.(41)
R:Waltz
A:Northumbria
K:G
(3DGB|B2BGBc|d2deBe|dcAFAe|dBGDGA|B2BGBc|d2dede|dcADFA|G3:|
|:z2|G2g2fe|edd2ed|dcc2dc|cBB2G2|g2g2fe|edd2ed|
^c2c2BA|"?"d2dAfA|e2eAfA|d2dAfA|e2ec^cA|d/e/^c/e/d/e/ =c/d/B/d/A/d/|G2G
DGA||
B2B^FdF|B2BcBA|G2GDBD|G2G^FGA|B2B^FdF|B2BcBA|G2GEBD|G4G2|
g2g2fe|edd2e2|dcc2d2|cBB2G2|g2g2fe|edd2e2|dcc2f2|g4|]


